src/assets/images/TransPaybill.svg

<?xml version="1.0" encoding="UTF-8" standalone="no"?><!-- Generator: Gravit.io --><svg xmlns="http://www.w3.org/2000/svg" xmlns:xlink="http://www.w3.org/1999/xlink" style="isolation:isolate" viewBox="0 0 400 300" width="400pt" height="300pt"><defs><clipPath id="_clipPath_fN6b4txtqsAMAvWLgsszuxmxuaaqukOq"><rect width="400" height="300"/></clipPath></defs><g clip-path="url(#_clipPath_fN6b4txtqsAMAvWLgsszuxmxuaaqukOq)"><g><path d=" M 154 100 L 306 100 L 306 228 L 154 228 L 154 100 Z " fill="rgb(234,234,232)"/><path d=" M 226 148 L 306 148 L 306 204 L 226 204 L 226 148 Z " fill="rgb(203,203,203)"/><path d=" M 214 96 L 246 96 L 246 116 C 246 124.837 238.837 132 230 132 C 221.163 132 214 124.837 214 116 L 214 96 Z " fill="rgb(229,119,10)"/><path d=" M 182 96 L 214 96 L 214 116 C 214 124.837 206.837 132 198 132 C 189.163 132 182 124.837 182 116 L 182 96 Z " fill="rgb(203,203,203)"/><path d=" M 278 96 L 310 96 L 310 116 C 310 124.837 302.837 132 294 132 C 285.163 132 278 124.837 278 116 L 278 96 Z " fill="rgb(229,119,10)"/><path d=" M 246 96 L 278 96 L 278 116 C 278 124.837 270.837 132 262 132 C 253.163 132 246 124.837 246 116 L 246 96 Z " fill="rgb(203,203,203)"/><path d=" M 150 96 L 182 96 L 182 116 C 182 124.837 174.837 132 166 132 C 157.163 132 150 124.837 150 116 L 150 96 Z " fill="rgb(229,119,10)"/><path d=" M 310 100 L 150 100 L 150 80 L 162 76 L 302 76 L 310 80 L 310 100 Z " fill="rgb(251,181,64)"/><path d=" M 310 80 L 150 80 L 158 64 L 166 60 L 294 60 L 302 64 L 310 80 Z " fill="rgb(229,119,10)"/><path d=" M 210 212 L 170 212 L 170 168 C 170 156.954 178.954 148 190 148 C 201.046 148 210 156.954 210 168 L 210 212 Z " fill="rgb(99,104,155)"/><path d=" M 226 148 L 302 148 L 302 200 L 226 200 L 226 148 Z " fill="rgb(253,254,251)"/><path d=" M 166 212 L 214 212 L 214 228 L 166 228 L 166 212 Z " fill="rgb(203,203,203)"/><path d=" M 166 220 L 214 220 L 214 228 L 166 228 L 166 220 Z " fill="rgb(168,168,168)"/><path d=" M 314 248 L 150.346 248 C 143.579 248.003 137.779 243.163 136.572 236.505 L 124.006 167.39 C 123.229 163.109 119.5 159.998 115.15 160 L 110 160 C 107.791 160 106 158.209 106 156 C 106 153.791 107.791 152 110 152 L 115.15 152 C 123.367 151.997 130.409 157.874 131.876 165.959 L 144.442 235.073 C 144.961 237.926 147.446 240 150.346 240 L 314 240 C 316.209 240 318 241.791 318 244 C 318 246.209 316.209 248 314 248 Z " fill="rgb(40,43,78)"/><circle vector-effect="non-scaling-stroke" cx="178.00000000000003" cy="252.00000000000006" r="12" fill="rgb(234,234,232)"/><circle vector-effect="non-scaling-stroke" cx="290" cy="252.00000000000006" r="12" fill="rgb(234,234,232)"/><path d=" M 178 268 C 169.163 268 162 260.837 162 252 C 162 243.163 169.163 236 178 236 C 186.837 236 194 243.163 194 252 C 193.99 260.832 186.832 267.99 178 268 L 178 268 Z  M 178 244 C 173.582 244 170 247.582 170 252 C 170 256.418 173.582 260 178 260 C 182.418 260 186 256.418 186 252 C 185.995 247.584 182.416 244.005 178 244 L 178 244 Z " fill="rgb(168,168,168)"/><path d=" M 290 268 C 281.163 268 274 260.837 274 252 C 274 243.163 281.163 236 290 236 C 298.837 236 306 243.163 306 252 C 305.99 260.832 298.832 267.99 290 268 L 290 268 Z  M 290 244 C 285.582 244 282 247.582 282 252 C 282 256.418 285.582 260 290 260 C 294.418 260 298 256.418 298 252 C 297.995 247.584 294.416 244.005 290 244 L 290 244 Z " fill="rgb(168,168,168)"/><path d=" M 110 164 L 94 164 C 89.582 164 86 160.418 86 156 C 86 151.582 89.582 148 94 148 L 110 148 L 110 164 Z " fill="rgb(99,104,155)"/><path d=" M 154 32 L 306 32 L 306 64 L 154 64 L 154 32 Z " fill="rgb(40,43,78)"/><path d=" M 134 112 L 86 112 C 83.791 112 82 110.209 82 108 C 82 105.791 83.791 104 86 104 L 134 104 C 136.209 104 138 105.791 138 108 C 138 110.209 136.209 112 134 112 Z " fill="rgb(99,104,155)"/><path d=" M 134 92 L 90 92 C 87.791 92 86 90.209 86 88 C 86 85.791 87.791 84 90 84 L 134 84 C 136.209 84 138 85.791 138 88 C 138 90.209 136.209 92 134 92 Z " fill="rgb(99,104,155)"/><path d=" M 134 128 L 118 128 C 115.791 128 114 126.209 114 124 C 114 121.791 115.791 120 118 120 L 134 120 C 136.209 120 138 121.791 138 124 C 138 126.209 136.209 128 134 128 Z " fill="rgb(99,104,155)"/><path d=" M 106 128 L 98 128 C 95.791 128 94 126.209 94 124 C 94 121.791 95.791 120 98 120 L 106 120 C 108.209 120 110 121.791 110 124 C 110 126.209 108.209 128 106 128 Z " fill="rgb(99,104,155)"/><path d=" M 254 164 L 278 164 L 278 188 L 254 188 L 254 164 Z " fill="rgb(234,157,45)"/><path d=" M 270 164 L 270 172 C 270 174.209 268.209 176 266 176 C 263.791 176 262 174.209 262 172 L 262 164 L 270 164 Z " fill="rgb(195,131,37)"/><path d=" M 290 52 L 170 52 C 167.791 52 166 50.209 166 48 C 166 45.791 167.791 44 170 44 L 290 44 C 292.209 44 294 45.791 294 48 C 294 50.209 292.209 52 290 52 Z " fill="rgb(99,104,155)"/></g></g></svg>

<?xml version="1.0" encoding="utf-8"?>
<!-- Generator: Adobe Illustrator 24.0.1, SVG Export Plug-In . SVG Version: 6.00 Build 0)  -->
<svg version="1.1" id="Layer_1" xmlns="http://www.w3.org/2000/svg" xmlns:xlink="http://www.w3.org/1999/xlink" x="0px" y="0px"
	 viewBox="0 0 400 300" style="enable-background:new 0 0 400 300;" xml:space="preserve">
<style type="text/css">
	.st0{clip-path:url(#SVGID_2_);fill:#EAEAE8;}
	.st1{clip-path:url(#SVGID_2_);fill:#CBCBCB;}
	.st2{clip-path:url(#SVGID_2_);fill:url(#SVGID_3_);}
	.st3{clip-path:url(#SVGID_2_);fill:url(#SVGID_4_);}
	.st4{clip-path:url(#SVGID_2_);fill:url(#SVGID_5_);}
	.st5{clip-path:url(#SVGID_2_);fill:#FBB540;}
	.st6{clip-path:url(#SVGID_2_);fill:url(#SVGID_6_);}
	.st7{clip-path:url(#SVGID_2_);fill:#474747;}
	.st8{clip-path:url(#SVGID_2_);fill:#FDFEFB;}
	.st9{clip-path:url(#SVGID_2_);fill:#A8A8A8;}
	.st10{clip-path:url(#SVGID_2_);fill:#1C1C1C;}
	.st11{clip-path:url(#SVGID_2_);fill:#EA9D2D;}
	.st12{clip-path:url(#SVGID_2_);fill:#C38325;}
</style>
<g>
	<defs>
		<rect id="SVGID_1_" width="400" height="300"/>
	</defs>
	<clipPath id="SVGID_2_">
		<use xlink:href="#SVGID_1_"  style="overflow:visible;"/>
	</clipPath>
	<path class="st0" d="M154,100h152v128H154V100z"/>
	<path class="st1" d="M226,148h80v56h-80V148z"/>
	<linearGradient id="SVGID_3_" gradientUnits="userSpaceOnUse" x1="230" y1="132" x2="230" y2="96">
		<stop  offset="0" style="stop-color:#F5524E"/>
		<stop  offset="1" style="stop-color:#D0342F"/>
	</linearGradient>
	<path class="st2" d="M214,96h32v20c0,8.8-7.2,16-16,16s-16-7.2-16-16V96z"/>
	<path class="st1" d="M182,96h32v20c0,8.8-7.2,16-16,16s-16-7.2-16-16V96z"/>
	<linearGradient id="SVGID_4_" gradientUnits="userSpaceOnUse" x1="294" y1="132" x2="294" y2="96">
		<stop  offset="0" style="stop-color:#F5524E"/>
		<stop  offset="1" style="stop-color:#D0342F"/>
	</linearGradient>
	<path class="st3" d="M278,96h32v20c0,8.8-7.2,16-16,16s-16-7.2-16-16V96z"/>
	<path class="st1" d="M246,96h32v20c0,8.8-7.2,16-16,16s-16-7.2-16-16V96z"/>
	<linearGradient id="SVGID_5_" gradientUnits="userSpaceOnUse" x1="166" y1="132" x2="166" y2="96">
		<stop  offset="0" style="stop-color:#F5524E"/>
		<stop  offset="1" style="stop-color:#D0342F"/>
	</linearGradient>
	<path class="st4" d="M150,96h32v20c0,8.8-7.2,16-16,16s-16-7.2-16-16V96z"/>
	<path class="st5" d="M310,100H150V80l12-4h140l8,4V100z"/>
	<linearGradient id="SVGID_6_" gradientUnits="userSpaceOnUse" x1="150" y1="70" x2="310" y2="70">
		<stop  offset="0" style="stop-color:#F5524E"/>
		<stop  offset="1" style="stop-color:#D0342F"/>
	</linearGradient>
	<path class="st6" d="M310,80H150l8-16l8-4h128l8,4L310,80z"/>
	<path class="st7" d="M210,212h-40v-44c0-11,9-20,20-20s20,9,20,20V212z"/>
	<path class="st8" d="M226,148h76v52h-76V148z"/>
	<path class="st1" d="M166,212h48v16h-48V212z"/>
	<path class="st9" d="M166,220h48v8h-48V220z"/>
	<path class="st10" d="M314,248H150.3c-6.8,0-12.6-4.8-13.8-11.5L124,167.4c-0.8-4.3-4.5-7.4-8.9-7.4H110c-2.2,0-4-1.8-4-4
		s1.8-4,4-4h5.2c8.2,0,15.3,5.9,16.7,14l12.6,69.1c0.5,2.9,3,4.9,5.9,4.9H314c2.2,0,4,1.8,4,4S316.2,248,314,248z"/>
	<circle vector-effect="non-scaling-stroke" class="st0" cx="178" cy="252" r="12"/>
	<circle vector-effect="non-scaling-stroke" class="st0" cx="290" cy="252" r="12"/>
	<path class="st9" d="M178,268c-8.8,0-16-7.2-16-16s7.2-16,16-16s16,7.2,16,16C194,260.8,186.8,268,178,268L178,268z M178,244
		c-4.4,0-8,3.6-8,8s3.6,8,8,8s8-3.6,8-8C186,247.6,182.4,244,178,244L178,244z"/>
	<path class="st9" d="M290,268c-8.8,0-16-7.2-16-16s7.2-16,16-16s16,7.2,16,16C306,260.8,298.8,268,290,268L290,268z M290,244
		c-4.4,0-8,3.6-8,8s3.6,8,8,8s8-3.6,8-8C298,247.6,294.4,244,290,244L290,244z"/>
	<path class="st7" d="M110,164H94c-4.4,0-8-3.6-8-8s3.6-8,8-8h16V164z"/>
	<path class="st10" d="M154,32h152v32H154V32z"/>
	<path class="st7" d="M134,112H86c-2.2,0-4-1.8-4-4s1.8-4,4-4h48c2.2,0,4,1.8,4,4S136.2,112,134,112z"/>
	<path class="st7" d="M134,92H90c-2.2,0-4-1.8-4-4s1.8-4,4-4h44c2.2,0,4,1.8,4,4S136.2,92,134,92z"/>
	<path class="st7" d="M134,128h-16c-2.2,0-4-1.8-4-4s1.8-4,4-4h16c2.2,0,4,1.8,4,4S136.2,128,134,128z"/>
	<path class="st7" d="M106,128h-8c-2.2,0-4-1.8-4-4s1.8-4,4-4h8c2.2,0,4,1.8,4,4S108.2,128,106,128z"/>
	<path class="st11" d="M254,164h24v24h-24V164z"/>
	<path class="st12" d="M270,164v8c0,2.2-1.8,4-4,4s-4-1.8-4-4v-8H270z"/>
	<path class="st7" d="M290,52H170c-2.2,0-4-1.8-4-4s1.8-4,4-4h120c2.2,0,4,1.8,4,4S292.2,52,290,52z"/>
</g>
</svg>
